X: 305555
M: 6/8
L: 1/8
K: G
z |\
fed edB | dAF E2F | AFA Afd | B2c d2 :|
|: d/e/ |\
fdf agf | ece gfe | fdf afg | afd (faf) |\
gbg faf | efd cBc | dAF Afd | B2c d2 :|


